dist/img/icons/nav/shevron-right.svg

<svg width="7" height="12" viewBox="0 0 7 12" fill="none" xmlns="http://www.w3.org/2000/svg">
<path d="M6.83376 6.22063L1.29814 11.5061C1.07728 11.7202 0.720147 11.7202 0.499286 11.5061L0.165646 11.1825C-0.0552152 10.9684 -0.0552152 10.6221 0.165646 10.408L4.97289 5.83333L0.170345 1.25871C-0.050516 1.04456 -0.050516 0.698269 0.170345 0.484118L0.503986 0.160613C0.724846 -0.0535377 1.08198 -0.0535377 1.30284 0.160613L6.83846 5.44604C7.05462 5.66019 7.05462 6.00648 6.83376 6.22063Z" fill="#A7B0BC"/>
</svg>

<svg width="7" height="12" fill="none" xmlns="http://www.w3.org/2000/svg"><path d="M6.834 6.22l-5.536 5.286a.577.577 0 01-.799 0l-.333-.324a.535.535 0 010-.774l4.807-4.575L.17 1.26a.536.536 0 010-.775L.504.161a.577.577 0 01.799 0l5.535 5.285a.54.54 0 01-.004.775z" fill="#A7B0BC"/></svg>
